lib/functional/system&devices/battery-charging-vertical.svg

<svg xmlns="http://www.w3.org/2000/svg" fill="none" stroke="currentColor" aria-hidden="true" viewBox="0 0 32 32"><g id="Icon-BatteryChargingVertical"><g clip-path="url(#clip0_9_1870)"><g id="size=md (32px)"><g id="BatteryChargingVertical"><path id="Vector" stroke-linecap="round" stroke-linejoin="round" stroke-width="2" d="M12 1H20"/><path id="Vector_2" stroke-linecap="round" stroke-linejoin="round" stroke-width="2" d="M23 5H9C7.89543 5 7 5.89543 7 7V26C7 27.1046 7.89543 28 9 28H23C24.1046 28 25 27.1046 25 26V7C25 5.89543 24.1046 5 23 5Z"/><path id="Vector_3" stroke-linecap="round" stroke-linejoin="round" stroke-width="2" d="M16 21.5L18 16.5H14L16 11.5"/></g></g></g></g><defs><clipPath id="clip0_9_1870"><rect width="32" height="32" fill="white" rx="5"/></clipPath></defs></svg>

<svg xmlns="http://www.w3.org/2000/svg" fill="none" stroke="currentColor" aria-hidden="true" viewBox="0 0 32 32"><path stroke-linecap="round" stroke-linejoin="round" stroke-width="2" d="M12 1h8m3 4H9a2 2 0 0 0-2 2v19a2 2 0 0 0 2 2h14a2 2 0 0 0 2-2V7a2 2 0 0 0-2-2Z"/><path stroke-linecap="round" stroke-linejoin="round" stroke-width="2" d="m16 21.5 2-5h-4l2-5"/></svg>
